packages/kaspersky-hexa-ui-icons/src/iconsSVGs/24/ArrowForward.svg

<svg width="24" height="24" viewBox="0 0 24 24" fill="none" xmlns="http://www.w3.org/2000/svg">
<path fill-rule="evenodd" clip-rule="evenodd" d="M13.2929 19.7071C12.9024 19.3166 12.9024 18.6834 13.2929 18.2929L18.5858 13L3 13C2.44772 13 2 12.5523 2 12C2 11.4477 2.44772 11 3 11L18.5858 11L13.2929 5.70711C12.9024 5.31658 12.9024 4.68342 13.2929 4.29289C13.6834 3.90237 14.3166 3.90237 14.7071 4.29289L21.7071 11.2929C22.0976 11.6834 22.0976 12.3166 21.7071 12.7071L14.7071 19.7071C14.3166 20.0976 13.6834 20.0976 13.2929 19.7071Z" fill="black"/>
</svg>

<svg xmlns="http://www.w3.org/2000/svg" width="24" height="24" fill="none" viewBox="0 0 24 24"><path d="M0 24h24V0H0z"/><path fill="#000" fill-rule="evenodd" d="M13.2929 19.7071c-.3905-.3905-.3905-1.0237 0-1.4142L18.5858 13H3c-.5523 0-1-.4477-1-1s.4477-1 1-1h15.5858l-5.2929-5.2929c-.3905-.3905-.3905-1.0237 0-1.4142s1.0237-.3905 1.4142 0l7 7c.3905.3905.3905 1.0237 0 1.4142l-7 7c-.3905.3905-1.0237.3905-1.4142 0"/></svg>
